X:1
T:We Wish You A Merry Christmas
B:Singing Together, Autumn 1965, BBC Publications
F:http://www.folkinfo.org/songs
M:3/4     %Meter
L:1/8     %
K:Bb
F2 |B2 Bc BA |G2 E2 G2 |c2 cd cB | A2 F2
w:We wish you a mer-ry Christ-mas, We wish you a mer-ry Christ-mas,
A2 |d2 de dc |B2 G2 FF |G2 c2 A2 | B4
w:We wish you a mer-ry Christ-mas, And a hap-py New Year
 F2 |B2 B2 B2 |A4 A2 |B2 A2 G2 | F4
w:Good tid-ings we bring to you and your kin.
c2 |d2 cc BB |f2 F2 FF |G2 c2 A2 | B4  |]
w: We wish you a mer-ry Christ-mas and a hap-py New Year.
W:We wish you a merry Christmas,
W:We wish you a merry Christmas,
W:We wish you a merry Christmas,
W:And a happy New Year
W:Good tidings we bring to you and your kin.
W:We wish you a merry Christmas and a happy New Year.
W:
W:Now bring us some figgy pudding,
W:Now bring us some figgy pudding,
W:Now bring us some figgy pudding,
W:And bring some out here.
W:Good tidings ...
W:
W:For we all like figgy pudding,
W:For we all like figgy pudding,
W:For we all like figgy pudding,
W:So bring some out here.
W:Good tidings ...
W:
W:And we won't go until we got some,
W:And we won't go until we got some,
W:And we won't go until we got some,
W:So bring some out here.
W:Good tidings ...
